public/logo.svg

<svg width="1650" height="1450" fill="none" xmlns="http://www.w3.org/2000/svg">
  <path
    d="m1650 440.756-52.83 4.054c-10.6-12.407-19.94-29.509-30.47-48.759-43.91-80.327-108.27-198.058-368.72-168.087 7.84 543.25 164.09 761.924 260.58 896.966 47.98 67.14 81.18 113.61 74.03 169.02-7.83 94.58-80.23 152.67-158.5 156.05-213.32-7.58-234.31-265.66-285.51-895.356-8.13-100.03-17.03-209.436-27.58-328.706l-250.473 6.079V3.013C1399.82 7.097 1506.92 49.19 1599.16 305.556c14.31 39.763 30.45 84.618 50.84 135.2zM542.038 225.938c16.959 306.691 63.27 613.382 68.489 913.992-3.914 199.96-121.323 306.69-275.911 308.04C80.23 1456.76 0 1149.39 0 1018.34h54.791c5.218 108.08 55.443 185.77 162.416 190.5 291.565 4.05 131.106-530.972 129.149-978.849L0 232.018 1.957 3.013C297.94 1.528 525.344-.887 701.518.333v225.605h-159.48z"
    fill="#FFC107" />
</svg>

<svg width="1650" height="1450" viewBox="0 0 1650 1450" fill="none" xmlns="http://www.w3.org/2000/svg">
<path d="M1650 440.756L1597.17 444.81C1586.57 432.403 1577.23 415.301 1566.7 396.051C1522.79 315.724 1458.43 197.993 1197.98 227.964C1205.82 771.214 1362.07 989.888 1458.56 1124.93C1506.54 1192.07 1539.74 1238.54 1532.59 1293.95C1524.76 1388.53 1452.36 1446.62 1374.09 1450C1160.77 1442.42 1139.78 1184.34 1088.58 554.644C1080.45 454.614 1071.55 345.208 1061 225.938L810.527 232.017L810.527 3.01253C1399.82 7.09741 1506.92 49.1895 1599.16 305.556C1613.47 345.319 1629.61 390.174 1650 440.756Z" fill="#FFC107"/>
<path d="M542.038 225.938C558.997 532.629 605.308 839.32 610.527 1139.93C606.613 1339.89 489.204 1446.62 334.616 1447.97C80.2296 1456.76 0.000100483 1149.39 8.90257e-05 1018.34L54.791 1018.34C60.0092 1126.42 110.234 1204.11 217.207 1208.84C508.772 1212.89 348.313 677.868 346.356 229.991L2.02836e-05 232.018L1.95691 3.01253C297.94 1.52763 525.344 -0.887539 701.518 0.333672L701.518 225.938L542.038 225.938Z" fill="#FFC107"/>
</svg>
